X: 4919
T: Breach, The
R: jig
M: 6/8
K: Emajor
K: C#min
Pa3 agf|Pg3 gfe|fdB Bcd|cec fcg|
Pa3 agf|Pg3 gfe|Bce Bcg|Pf3 efg|
aec agf|gBg gfe|fdB Bcd|cec fcg|
Pa3 agf|gbg gfe|fdB Bcd|Pe3 ded||
|:Pc3 cBG|AeA fAe|gBg gfe|fdB AGF|
[1 Gcc cBG|AeA fAe|gbg gfe|fgf fed:|
[2 GBe eBG|Ace ecA|B2B Bcc|cee efg||

